config/expand/iconfont/module-menu/module-pinzhiguanli_active.svg

<?xml version="1.0" encoding="UTF-8"?>
<svg width="21px" height="19px" viewBox="0 0 21 19" version="1.1" xmlns="http://www.w3.org/2000/svg" xmlns:xlink="http://www.w3.org/1999/xlink">
    <!-- Generator: Sketch 53 (72520) - https://sketchapp.com -->
    <title>pinzhiguanliActive</title>
    <desc>Created with Sketch.</desc>
    <defs>
        <linearGradient x1="14.3387761%" y1="50%" x2="100%" y2="50%" id="linearGradient-1">
            <stop stop-color="#FFFFFF" offset="0%"></stop>
            <stop stop-color="#FFFFFF" offset="100%"></stop>
        </linearGradient>
        <linearGradient x1="14.3387761%" y1="50%" x2="100%" y2="50%" id="linearGradient-2">
            <stop stop-color="#FFFFFF" offset="0%"></stop>
            <stop stop-color="#FFFFFF" offset="100%"></stop>
        </linearGradient>
    </defs>
    <g id="Page-2" stroke="none" stroke-width="1" fill="none" fill-rule="evenodd">
        <g id="图标" transform="translate(-895.000000, -542.000000)">
            <g id="pinzhiguanliActive" transform="translate(895.000000, 542.000000)">
                <path d="M10.5190311,10.7898456 L7.50603407,7.02602774 L4.8145186,7.02602774 C8.03390528,10.9356789 9.93540946,13.2603363 10.5190311,14 C11.1026528,13.2339197 12.9884703,10.9224706 16.1764837,7.06565258 L13.4555157,7.06565258 L10.5190311,10.7898456 Z" id="Shape" fill="url(#linearGradient-1)"></path>
                <path d="M10.4812542,19 C10.0330918,19 9.42196111,18.9146067 8.68860433,18.1033708 L5.38849883,14.388764 C3.2699126,11.9977528 1.4772627,9.99101122 0.662421833,9.05168538 L0.621679794,8.96629213 C-0.233903116,7.72808989 -0.193161077,6.40449438 0.662421833,5.42247191 C1.11058431,4.91011236 2.1291354,3.75730337 2.86249217,2.9460674 L3.47362282,2.22022471 C3.92178529,1.70786516 4.36994777,1.23820224 4.65514206,0.896629218 C5.18478862,0.298876398 5.79591927,0 6.44779196,0 C7.07250329,0 7.73795666,0 8.44415208,0 L14.5554585,0 C15.4517835,0.042696625 15.940688,0.555056171 16.2666244,0.896629218 C16.9999811,1.66516854 18.5074367,3.37303372 19.4852458,4.48314606 L20.3408287,5.42247191 C21.3186377,6.5752809 21.1149275,8.15505619 20.3408287,9.05168538 C19.4852458,10.0337078 17.9777902,11.6988764 16.1851403,13.705618 L12.2739041,18.1033708 C11.5405474,18.9146067 10.9701587,19 10.4812542,19 Z M11.5748917,2.01622839 L7.42321885,2.01622839 C7.18422469,2.01622839 6.54115274,2.10258711 6.17312694,2.47162089 C5.84653165,2.79851479 3.01606958,5.61046683 2.64050732,6.0954165 C2.12837697,6.74201606 2.12837697,7.35405733 2.64050732,8.20271925 C3.09573431,8.79543552 5.38223187,11.4603237 9.5,16.1973839 C9.90970428,16.722746 10.2169825,16.803571 10.4901187,16.803571 C10.7291128,16.803571 11.036391,16.7631585 11.4802373,16.1973839 C15.51409,11.4872654 17.7700104,8.82237717 18.2479988,8.20271925 C18.657703,7.63694463 18.7942711,6.86781965 18.2479988,6.14039512 C15.795562,3.41484818 14.3986335,2.03860389 14.0572133,2.01166226 C13.6938993,2.01166226 13.0771407,2.01622841 11.5748917,2.01622839 Z" id="Shape" fill="url(#linearGradient-2)" fill-rule="nonzero"></path>
            </g>
        </g>
    </g>
</svg>

<svg width="21" height="19" xmlns="http://www.w3.org/2000/svg"><path d="M10.519 10.79L7.506 7.026H4.815c3.219 3.91 5.12 6.234 5.704 6.974.584-.766 2.47-3.078 5.657-6.934h-2.72l-2.937 3.724z"/><path d="M10.481 19c-.448 0-1.059-.085-1.792-.897l-3.3-3.714C3.268 11.998 1.476 9.99.661 9.052l-.04-.086c-.856-1.238-.815-2.562.04-3.544a264.56 264.56 0 012.2-2.476l.612-.726c.448-.512.896-.982 1.181-1.323C5.185.299 5.795 0 6.448 0h8.107c.897.043 1.386.555 1.712.897.733.768 2.24 2.476 3.218 3.586l.856.94c.978 1.152.774 2.732 0 3.629-.856.982-2.363 2.647-4.156 4.654l-3.911 4.397c-.733.812-1.304.897-1.793.897zm1.094-16.984H7.423c-.239 0-.882.087-1.25.456-.326.327-3.157 3.138-3.532 3.623-.513.647-.513 1.26 0 2.108.455.592 2.741 3.257 6.859 7.994.41.526.717.607.99.607.24 0 .546-.04.99-.607 4.034-4.71 6.29-7.375 6.768-7.994.41-.566.546-1.335 0-2.063-2.452-2.725-3.85-4.101-4.19-4.128-.364 0-.98.004-2.483.004z"/></svg>
